assets/images/ntirosety.svg

<svg width="135" height="30" viewBox="0 0 135 30" fill="none" xmlns="http://www.w3.org/2000/svg">
<path d="M36.2744 23C36.2744 23 36.2744 18.5674 36.2744 9.70215C36.2744 9.70215 37.0977 9.70215 38.7441 9.70215C38.7441 9.70215 38.7441 11.4893 38.7441 15.0635C38.7441 15.0635 40.3291 15.0635 43.499 15.0635C43.499 15.0635 43.499 13.2764 43.499 9.70215C43.499 9.70215 44.3193 9.70215 45.96 9.70215C45.96 9.70215 45.96 14.1348 45.96 23C45.96 23 45.1396 23 43.499 23C43.499 23 43.499 21.1396 43.499 17.4189C43.499 17.4189 41.9141 17.4189 38.7441 17.4189C38.7441 17.4189 38.7441 19.2793 38.7441 23C38.7441 23 37.9209 23 36.2744 23ZM58.0537 19.0801C58.0537 19.0801 55.4785 19.0801 50.3281 19.0801C50.4746 19.6836 50.7939 20.1611 51.2861 20.5127C51.7783 20.8643 52.3789 21.04 53.0879 21.04C53.5801 21.04 53.9902 20.9668 54.3184 20.8203C54.6465 20.668 54.9658 20.4102 55.2764 20.0469H57.8867C57.7461 20.498 57.4824 20.9609 57.0957 21.4355C56.0645 22.6367 54.7461 23.2373 53.1406 23.2373C52.3906 23.2373 51.6816 23.1025 51.0137 22.833C50.3457 22.5635 49.7715 22.2002 49.291 21.7432C48.8164 21.2803 48.4385 20.7295 48.1572 20.0908C47.876 19.4463 47.7354 18.7666 47.7354 18.0518C47.7354 17.0908 47.9668 16.209 48.4297 15.4062C48.8984 14.5977 49.5342 13.9619 50.3369 13.499C51.1455 13.0303 52.0303 12.7959 52.9912 12.7959C53.9697 12.7959 54.8516 13.0273 55.6367 13.4902C56.4219 13.9473 57.0342 14.5859 57.4736 15.4062C57.9189 16.2207 58.1416 17.1377 58.1416 18.1572C58.1416 18.4854 58.1123 18.793 58.0537 19.0801ZM50.2578 16.9707H55.7861C55.6338 16.332 55.3203 15.8428 54.8457 15.5029C54.3711 15.1631 53.7646 14.9932 53.0264 14.9932C52.3115 14.9932 51.7168 15.1631 51.2422 15.5029C50.7734 15.8369 50.4453 16.3262 50.2578 16.9707ZM61.2881 9.57031C61.2881 9.57031 61.8945 9.57031 63.1074 9.57031C63.1074 10.0215 63.1982 10.3496 63.3799 10.5547C63.5615 10.7539 63.8545 10.8535 64.2588 10.8535C64.6631 10.8535 64.9561 10.7539 65.1377 10.5547C65.3193 10.3496 65.4102 10.0215 65.4102 9.57031H67.2295C66.9658 11.1289 65.9756 11.9082 64.2588 11.9082C62.542 11.9082 61.5518 11.1289 61.2881 9.57031ZM66.4561 13.0244C66.4561 13.0244 67.2646 13.0244 68.8818 13.0244C68.8818 13.0244 68.8818 16.3496 68.8818 23C68.8818 23 68.0908 23 66.5088 23C66.5088 23 66.5088 20.8027 66.5088 16.4082C66.5088 16.4082 65.0205 18.6055 62.0439 23C62.0439 23 61.2354 23 59.6182 23C59.6182 23 59.6182 19.6748 59.6182 13.0244C59.6182 13.0244 60.4092 13.0244 61.9912 13.0244C61.9912 13.0244 61.9912 15.2217 61.9912 19.6162C61.9912 19.6162 63.4795 17.4189 66.4561 13.0244ZM70.833 26.3311C70.833 26.3311 70.833 21.8955 70.833 13.0244C70.833 13.0244 71.5625 13.0244 73.0215 13.0244C73.0215 13.0244 73.0215 13.417 73.0215 14.2021C73.8125 13.2646 74.9053 12.7959 76.2998 12.7959C77.249 12.7959 78.1016 13.0186 78.8574 13.4639C79.6133 13.9033 80.2021 14.5186 80.624 15.3096C81.0518 16.1006 81.2656 16.9912 81.2656 17.9814C81.2656 18.9775 81.0518 19.877 80.624 20.6797C80.1963 21.4766 79.6016 22.1035 78.8398 22.5605C78.084 23.0117 77.2314 23.2373 76.2822 23.2373C75.6729 23.2373 75.125 23.1436 74.6387 22.9561C74.1523 22.7686 73.6807 22.4727 73.2236 22.0684V26.3311H70.833ZM75.9395 14.9932C75.1309 14.9932 74.4512 15.2861 73.9004 15.8721C73.3555 16.4521 73.083 17.1787 73.083 18.0518C73.083 18.9014 73.3643 19.6133 73.9268 20.1875C74.4893 20.7559 75.1836 21.04 76.0098 21.04C76.8125 21.04 77.4863 20.7529 78.0312 20.1787C78.582 19.5986 78.8574 18.8838 78.8574 18.0342C78.8574 17.1553 78.582 16.4287 78.0312 15.8545C77.4805 15.2803 76.7832 14.9932 75.9395 14.9932ZM87.6289 12.7959C88.5781 12.7959 89.457 13.0303 90.2656 13.499C91.0742 13.9678 91.7129 14.6064 92.1816 15.415C92.6504 16.2178 92.8848 17.0908 92.8848 18.0342C92.8848 18.9717 92.6475 19.8418 92.1729 20.6445C91.7041 21.4414 91.0625 22.0742 90.248 22.543C89.4336 23.0059 88.5488 23.2373 87.5938 23.2373C86.6328 23.2373 85.7422 23.0059 84.9219 22.543C84.1074 22.0742 83.4629 21.4414 82.9883 20.6445C82.5137 19.8418 82.2764 18.9717 82.2764 18.0342C82.2764 17.3193 82.4141 16.6396 82.6895 15.9951C82.9707 15.3447 83.3486 14.7881 83.8232 14.3252C84.3037 13.8564 84.875 13.4844 85.5371 13.209C86.1992 12.9336 86.8965 12.7959 87.6289 12.7959ZM87.5322 14.9932C86.7588 14.9932 86.0908 15.292 85.5283 15.8896C84.9717 16.4814 84.6934 17.1904 84.6934 18.0166C84.6934 18.8486 84.9746 19.5605 85.5371 20.1523C86.0996 20.7441 86.7764 21.04 87.5674 21.04C88.3643 21.04 89.0469 20.7471 89.6152 20.1611C90.1836 19.5693 90.4678 18.8604 90.4678 18.0342C90.4678 17.1787 90.1836 16.458 89.6152 15.8721C89.0469 15.2861 88.3525 14.9932 87.5322 14.9932ZM101.463 19.7217C101.463 19.7217 102.362 19.7217 104.161 19.7217C103.745 20.8408 103.106 21.708 102.245 22.3232C101.39 22.9326 100.379 23.2373 99.2129 23.2373C98.4863 23.2373 97.792 23.0996 97.1299 22.8242C96.4736 22.5488 95.9082 22.1797 95.4336 21.7168C94.959 21.2539 94.5811 20.7002 94.2998 20.0557C94.0186 19.4111 93.8779 18.7314 93.8779 18.0166C93.8779 17.0557 94.1094 16.1768 94.5723 15.3799C95.0352 14.5771 95.668 13.9473 96.4707 13.4902C97.2793 13.0273 98.167 12.7959 99.1338 12.7959C99.8486 12.7959 100.528 12.9248 101.173 13.1826C101.823 13.4346 102.392 13.7979 102.878 14.2725C103.194 14.583 103.443 14.8877 103.625 15.1865C103.812 15.4795 103.991 15.8691 104.161 16.3555H101.463C100.994 15.4473 100.218 14.9932 99.1338 14.9932C98.3018 14.9932 97.6191 15.2744 97.0859 15.8369C96.5586 16.3936 96.2949 17.1143 96.2949 17.999C96.2949 18.8721 96.5703 19.5986 97.1211 20.1787C97.6777 20.7529 98.3691 21.04 99.1953 21.04C99.6875 21.04 100.112 20.9346 100.47 20.7236C100.833 20.5127 101.164 20.1787 101.463 19.7217ZM115.446 19.0801C115.446 19.0801 112.871 19.0801 107.721 19.0801C107.867 19.6836 108.187 20.1611 108.679 20.5127C109.171 20.8643 109.771 21.04 110.48 21.04C110.973 21.04 111.383 20.9668 111.711 20.8203C112.039 20.668 112.358 20.4102 112.669 20.0469H115.279C115.139 20.498 114.875 20.9609 114.488 21.4355C113.457 22.6367 112.139 23.2373 110.533 23.2373C109.783 23.2373 109.074 23.1025 108.406 22.833C107.738 22.5635 107.164 22.2002 106.684 21.7432C106.209 21.2803 105.831 20.7295 105.55 20.0908C105.269 19.4463 105.128 18.7666 105.128 18.0518C105.128 17.0908 105.359 16.209 105.822 15.4062C106.291 14.5977 106.927 13.9619 107.729 13.499C108.538 13.0303 109.423 12.7959 110.384 12.7959C111.362 12.7959 112.244 13.0273 113.029 13.4902C113.814 13.9473 114.427 14.5859 114.866 15.4062C115.312 16.2207 115.534 17.1377 115.534 18.1572C115.534 18.4854 115.505 18.793 115.446 19.0801ZM107.65 16.9707H113.179C113.026 16.332 112.713 15.8428 112.238 15.5029C111.764 15.1631 111.157 14.9932 110.419 14.9932C109.704 14.9932 109.109 15.1631 108.635 15.5029C108.166 15.8369 107.838 16.3262 107.65 16.9707ZM123.172 15.2041C123.172 15.2041 122.396 15.2041 120.843 15.2041C120.843 15.2041 120.843 17.8027 120.843 23C120.843 23 120.046 23 118.452 23C118.452 23 118.452 20.4014 118.452 15.2041C118.452 15.2041 117.679 15.2041 116.132 15.2041C116.132 15.2041 116.132 14.4775 116.132 13.0244C116.132 13.0244 118.479 13.0244 123.172 13.0244C123.172 13.0244 123.172 13.751 123.172 15.2041ZM131.302 13.0244C131.302 13.0244 132.11 13.0244 133.728 13.0244C133.728 13.0244 133.728 16.3496 133.728 23C133.728 23 132.937 23 131.354 23C131.354 23 131.354 20.8027 131.354 16.4082C131.354 16.4082 129.866 18.6055 126.89 23C126.89 23 126.081 23 124.464 23C124.464 23 124.464 19.6748 124.464 13.0244C124.464 13.0244 125.255 13.0244 126.837 13.0244C126.837 13.0244 126.837 15.2217 126.837 19.6162C126.837 19.6162 128.325 17.4189 131.302 13.0244Z" fill="#111111"/>
<path d="M26.7857 23.5715C26.3082 23.5739 25.8374 23.6841 25.4085 23.8938L20.8008 19.2858H17.1428V21.4286H19.9134L23.8934 25.4088C23.684 25.8378 23.5739 26.3084 23.5714 26.7858C23.5714 27.4215 23.7599 28.0429 24.1131 28.5715C24.4663 29.1001 24.9683 29.5121 25.5556 29.7554C26.143 29.9987 26.7892 30.0623 27.4128 29.9383C28.0363 29.8143 28.609 29.5081 29.0585 29.0586C29.508 28.6091 29.8142 28.0364 29.9382 27.4128C30.0622 26.7893 29.9986 26.143 29.7553 25.5557C29.512 24.9684 29.1 24.4664 28.5714 24.1132C28.0429 23.76 27.4214 23.5715 26.7857 23.5715ZM26.7857 27.8572C26.5738 27.8572 26.3666 27.7944 26.1904 27.6766C26.0142 27.5589 25.8769 27.3916 25.7958 27.1958C25.7147 27 25.6935 26.7846 25.7348 26.5767C25.7762 26.3689 25.8782 26.178 26.0281 26.0282C26.1779 25.8783 26.3688 25.7763 26.5767 25.7349C26.7845 25.6936 26.9999 25.7148 27.1957 25.7959C27.3915 25.877 27.5588 26.0143 27.6765 26.1905C27.7943 26.3667 27.8571 26.5739 27.8571 26.7858C27.8569 27.0698 27.7439 27.3422 27.543 27.5431C27.3421 27.744 27.0698 27.8569 26.7857 27.8572Z" fill="black"/>
<path d="M26.7857 11.7858C26.1231 11.7878 25.4774 11.9948 24.9373 12.3785C24.3971 12.7622 23.9889 13.3037 23.7689 13.9286H17.1428V16.0715H23.7689C23.9663 16.6255 24.3122 17.1146 24.7688 17.4853C25.2254 17.856 25.7751 18.0941 26.3578 18.1736C26.9406 18.253 27.5339 18.1708 28.0731 17.9358C28.6123 17.7009 29.0765 17.3222 29.415 16.8413C29.7536 16.3604 29.9534 15.7956 29.9927 15.2088C30.032 14.622 29.9093 14.0357 29.6379 13.5139C29.3665 12.9921 28.9569 12.5549 28.4539 12.2502C27.9509 11.9454 27.3738 11.7847 26.7857 11.7858ZM26.7857 16.0715C26.5738 16.0715 26.3666 16.0086 26.1904 15.8909C26.0142 15.7732 25.8769 15.6059 25.7958 15.4101C25.7147 15.2143 25.6935 14.9989 25.7348 14.791C25.7762 14.5832 25.8782 14.3923 26.0281 14.2424C26.1779 14.0926 26.3688 13.9906 26.5767 13.9492C26.7845 13.9079 26.9999 13.9291 27.1957 14.0102C27.3915 14.0913 27.5588 14.2286 27.6765 14.4048C27.7943 14.581 27.8571 14.7881 27.8571 15.0001C27.8569 15.2841 27.7439 15.5565 27.543 15.7574C27.3421 15.9583 27.0698 16.0712 26.7857 16.0715Z" fill="black"/>
<path d="M26.7857 3.63984e-07C25.9335 0.000936234 25.1165 0.339884 24.5139 0.942477C23.9113 1.54507 23.5723 2.36209 23.5714 3.21429C23.5751 3.72757 23.703 4.23232 23.9444 4.68536L19.9239 8.57143H17.1428V10.7143H20.7903L25.5034 6.15814C25.9412 6.34899 26.4161 6.43982 26.8935 6.42403C27.3708 6.40823 27.8387 6.2862 28.2629 6.06682C28.6872 5.84745 29.0572 5.53624 29.346 5.15584C29.6349 4.77545 29.8353 4.33545 29.9326 3.86785C30.03 3.40026 30.0219 2.91684 29.9089 2.45277C29.7959 1.98871 29.5808 1.55568 29.2794 1.18519C28.978 0.8147 28.5977 0.516079 28.1664 0.311058C27.735 0.106037 27.2633 -0.000226969 26.7857 3.63984e-07ZM26.7857 4.28571C26.5738 4.28571 26.3666 4.22288 26.1904 4.10515C26.0142 3.98742 25.8769 3.82008 25.7958 3.6243C25.7147 3.42853 25.6935 3.2131 25.7348 3.00526C25.7762 2.79742 25.8782 2.60651 26.0281 2.45667C26.1779 2.30683 26.3688 2.20479 26.5767 2.16344C26.7845 2.1221 26.9999 2.14332 27.1957 2.22441C27.3915 2.30551 27.5588 2.44284 27.6765 2.61903C27.7943 2.79523 27.8571 3.00238 27.8571 3.21429C27.8569 3.49837 27.7439 3.77074 27.543 3.97162C27.3421 4.17249 27.0698 4.28546 26.7857 4.28571Z" fill="black"/>
<path d="M17.1429 4.28568H19.2857V2.14282H17.1429C16.5322 2.14487 15.9292 2.27818 15.3746 2.53372C14.82 2.78925 14.3269 3.16103 13.9286 3.62386C13.5303 3.16103 13.0371 2.78925 12.4825 2.53372C11.9279 2.27818 11.3249 2.14487 10.7143 2.14282H9.64286C7.08628 2.14566 4.63523 3.16251 2.82746 4.97028C1.01969 6.77805 0.00283591 9.2291 0 11.7857V18.2142C0.00283591 20.7708 1.01969 23.2219 2.82746 25.0296C4.63523 26.8374 7.08628 27.8543 9.64286 27.8571H10.7143C11.3249 27.8551 11.9279 27.7217 12.4825 27.4662C13.0371 27.2107 13.5303 26.8389 13.9286 26.3761C14.3269 26.8389 14.82 27.2107 15.3746 27.4662C15.9292 27.7217 16.5322 27.8551 17.1429 27.8571H19.2857V25.7142H17.1429C16.5747 25.7136 16.0301 25.4876 15.6283 25.0859C15.2266 24.6842 15.0007 24.1395 15 23.5714V6.42854C15.0007 5.86042 15.2266 5.31575 15.6283 4.91403C16.0301 4.51231 16.5747 4.28633 17.1429 4.28568ZM10.7143 25.7142H9.64286C7.84117 25.7111 6.10074 25.0599 4.73948 23.8796C3.37822 22.6993 2.48699 21.0687 2.22857 19.2857H4.28571V17.1428H2.14286V12.8571H5.35714C6.20934 12.8562 7.02636 12.5172 7.62895 11.9146C8.23154 11.312 8.57049 10.495 8.57143 9.64282V7.49996H6.42857V9.64282C6.42832 9.9269 6.31535 10.1993 6.11447 10.4002C5.9136 10.601 5.64122 10.714 5.35714 10.7142H2.22857C2.48699 8.93119 3.37822 7.30059 4.73948 6.12031C6.10074 4.94003 7.84117 4.28884 9.64286 4.28568H10.7143C11.2824 4.28633 11.8271 4.51231 12.2288 4.91403C12.6305 5.31575 12.8565 5.86042 12.8571 6.42854V10.7142H10.7143V12.8571H12.8571V17.1428H10.7143C9.86209 17.1438 9.04507 17.4827 8.44248 18.0853C7.83988 18.6879 7.50094 19.5049 7.5 20.3571V22.5H9.64286V20.3571C9.64311 20.073 9.75608 19.8006 9.95695 19.5998C10.1578 19.3989 10.4302 19.2859 10.7143 19.2857H12.8571V23.5714C12.8565 24.1395 12.6305 24.6842 12.2288 25.0859C11.8271 25.4876 11.2824 25.7136 10.7143 25.7142Z" fill="black"/>
</svg>

<svg width="135" height="30" fill="none" xmlns="http://www.w3.org/2000/svg"><path d="M36.274 23V9.702h2.47v5.361H43.5v-5.36h2.461V23h-2.461v-5.581h-4.755V23h-2.47Zm21.78-3.92h-7.726c.147.604.466 1.081.958 1.433.492.351 1.093.527 1.802.527.492 0 .902-.073 1.23-.22.329-.152.648-.41.958-.773h2.61c-.14.451-.404.914-.79 1.389-1.031 1.2-2.35 1.801-3.955 1.801a5.63 5.63 0 0 1-2.127-.404 5.4 5.4 0 0 1-1.723-1.09 5.22 5.22 0 0 1-1.134-1.652 5.044 5.044 0 0 1-.422-2.04 5.202 5.202 0 0 1 2.602-4.552 5.2 5.2 0 0 1 2.654-.703c.979 0 1.86.231 2.646.694a4.782 4.782 0 0 1 1.837 1.916c.445.815.668 1.732.668 2.751 0 .328-.03.636-.088.923Zm-7.796-2.11h5.528c-.152-.638-.466-1.127-.94-1.467-.475-.34-1.081-.51-1.82-.51-.715 0-1.31.17-1.784.51-.469.334-.797.823-.984 1.468Zm11.03-7.4h1.82c0 .451.09.78.272.985.181.199.474.299.879.299.404 0 .697-.1.879-.3.181-.204.272-.533.272-.984h1.82c-.264 1.559-1.254 2.338-2.971 2.338s-2.707-.78-2.97-2.338Zm5.168 3.454h2.426V23h-2.373v-6.592L62.044 23h-2.426v-9.976h2.373v6.592l4.465-6.592Zm4.377 13.307V13.024h2.189v1.178c.79-.937 1.883-1.406 3.278-1.406.949 0 1.802.223 2.557.668a4.582 4.582 0 0 1 1.767 1.846c.428.79.642 1.681.642 2.671 0 .996-.214 1.896-.642 2.699a4.793 4.793 0 0 1-1.784 1.88c-.756.452-1.609.677-2.558.677a4.54 4.54 0 0 1-1.643-.28 4.699 4.699 0 0 1-1.415-.889v4.263h-2.391Zm5.106-11.338c-.808 0-1.488.293-2.039.88-.544.58-.817 1.306-.817 2.179 0 .85.281 1.561.844 2.136.562.568 1.257.852 2.083.852.802 0 1.476-.287 2.021-.861.551-.58.826-1.295.826-2.145 0-.879-.275-1.605-.826-2.18-.55-.574-1.248-.86-2.092-.86Zm11.69-2.197c.95 0 1.828.234 2.637.703a5.182 5.182 0 0 1 1.916 1.916c.468.803.703 1.676.703 2.62 0 .937-.238 1.807-.712 2.61a5.204 5.204 0 0 1-1.925 1.898 5.28 5.28 0 0 1-2.654.694 5.346 5.346 0 0 1-2.672-.694 5.272 5.272 0 0 1-1.934-1.898 5.039 5.039 0 0 1-.712-2.61c0-.716.138-1.395.413-2.04.282-.65.66-1.207 1.134-1.67a5.387 5.387 0 0 1 1.714-1.116 5.393 5.393 0 0 1 2.092-.413Zm-.097 2.197c-.773 0-1.441.299-2.004.897a2.996 2.996 0 0 0-.835 2.127c0 .832.282 1.544.844 2.135.563.592 1.24.888 2.03.888.797 0 1.48-.293 2.048-.879.569-.592.853-1.3.853-2.127 0-.855-.284-1.576-.853-2.162a2.79 2.79 0 0 0-2.083-.879Zm13.931 4.729h2.698c-.416 1.119-1.055 1.986-1.916 2.601-.855.61-1.866.914-3.032.914a5.37 5.37 0 0 1-2.083-.413 5.383 5.383 0 0 1-1.696-1.107 5.193 5.193 0 0 1-1.134-1.661 5.045 5.045 0 0 1-.422-2.04c0-.96.231-1.84.694-2.636a5.025 5.025 0 0 1 1.899-1.89 5.266 5.266 0 0 1 2.663-.694c.715 0 1.394.129 2.039.387a5 5 0 0 1 1.705 1.09c.316.31.565.615.747.914.187.293.366.682.536 1.168h-2.698c-.469-.908-1.245-1.362-2.33-1.362-.831 0-1.514.281-2.047.844-.527.557-.791 1.277-.791 2.162 0 .873.275 1.6.826 2.18.557.574 1.248.861 2.074.861.493 0 .917-.105 1.275-.316.363-.211.694-.545.993-1.002Zm13.983-.642h-7.725c.146.604.466 1.081.958 1.433.492.351 1.092.527 1.801.527.493 0 .903-.073 1.231-.22.328-.152.647-.41.958-.773h2.61c-.14.451-.404.914-.791 1.389-1.031 1.2-2.349 1.801-3.955 1.801a5.63 5.63 0 0 1-2.127-.404 5.392 5.392 0 0 1-1.722-1.09 5.208 5.208 0 0 1-1.134-1.652 5.048 5.048 0 0 1-.422-2.04 5.201 5.201 0 0 1 2.601-4.552 5.203 5.203 0 0 1 2.655-.703c.978 0 1.86.231 2.645.694a4.78 4.78 0 0 1 1.837 1.916c.446.815.668 1.732.668 2.751 0 .328-.029.636-.088.923Zm-7.796-2.11h5.529c-.153-.638-.466-1.127-.941-1.467-.474-.34-1.081-.51-1.819-.51-.715 0-1.31.17-1.784.51-.469.334-.797.823-.985 1.468Zm15.522-1.766h-2.329V23h-2.391v-7.796h-2.32v-2.18h7.04v2.18Zm8.13-2.18h2.426V23h-2.374v-6.592L126.89 23h-2.426v-9.976h2.373v6.592l4.465-6.592Z" fill="#111"/><path d="M26.786 23.572a3.172 3.172 0 0 0-1.378.322l-4.607-4.608h-3.658v2.143h2.77l3.98 3.98c-.209.429-.32.9-.322 1.377a3.214 3.214 0 1 0 3.215-3.215Zm0 4.285a1.071 1.071 0 1 1 0-2.142 1.071 1.071 0 0 1 0 2.142ZM26.786 11.786a3.208 3.208 0 0 0-3.017 2.143h-6.626v2.143h6.626a3.208 3.208 0 1 0 3.017-4.286Zm0 4.286a1.072 1.072 0 1 1 0-2.144 1.072 1.072 0 0 1 0 2.143ZM26.786 0a3.218 3.218 0 0 0-3.215 3.214c.004.514.132 1.018.373 1.471l-4.02 3.886h-2.781v2.143h3.647l4.713-4.556A3.213 3.213 0 1 0 26.786 0Zm0 4.286a1.072 1.072 0 1 1 0-2.143 1.072 1.072 0 0 1 0 2.143Z" fill="#000"/><path d="M17.143 4.286h2.143V2.143h-2.143a4.26 4.26 0 0 0-3.214 1.48 4.26 4.26 0 0 0-3.215-1.48H9.643A9.654 9.654 0 0 0 0 11.786v6.428a9.653 9.653 0 0 0 9.643 9.643h1.071a4.26 4.26 0 0 0 3.215-1.48 4.259 4.259 0 0 0 3.214 1.48h2.143v-2.143h-2.143A2.145 2.145 0 0 1 15 23.571V6.43a2.146 2.146 0 0 1 2.143-2.143Zm-6.429 21.428H9.643a7.505 7.505 0 0 1-7.414-6.428h2.057v-2.143H2.143v-4.286h3.214a3.218 3.218 0 0 0 3.214-3.214V7.5H6.43v2.143a1.073 1.073 0 0 1-1.072 1.071H2.23a7.505 7.505 0 0 1 7.414-6.428h1.071a2.145 2.145 0 0 1 2.143 2.143v4.285h-2.143v2.143h2.143v4.286h-2.143A3.218 3.218 0 0 0 7.5 20.357V22.5h2.143v-2.143a1.072 1.072 0 0 1 1.071-1.071h2.143v4.285a2.145 2.145 0 0 1-2.143 2.143Z" fill="#000"/></svg>
